X: 20391
T: John Doherty's
R: reel
M: 4/4
K: Cmajor
c2Bc AcGA|cBce gced|c2Bc AcGc|eaag egde|
c2Bc AcGA|cBce gced|c2Bc AcGc|eaag e/f/gdg|
ec~c2 ecgc|ed~d2 edad|ec~c2 ecgc|eaag egdg|
ec~c2 ecgc|ed~d2 edad|ec~c2 ecgc|eaag egde||

